X: 19055
T: Iorball Sionaigh
R: jig
M: 6/8
K: Dmajor
FAF EDB,|DED D2F|AFE EFA|Bdd dBd|
efe dBA|FDD D2E|FEF B,^CD|EFE A3:|
BAB dBA|FDD DFA|Bee efg|fdB Bcd|
edB ABd|FDD D2E|FGA Bcd|efe dBA:|

